!! 00005] TT[TB
!! Eigene Aufnahme
!!!OTL: Gan shengling
!!!ARE: Asia, China, Shanxi Shanbei
!! Ethnic Group: Han
!! I, 75, 1)
!!!SCT: C1393
!!!YEM: Copyright 1995, estate of Helmut Schaffrath.
**kern
*ICvox
*Ivox
*M2/4
*k[]
*C:
{4g
8g
8cc
=1
8.a
16g
8e
8d
=2
4d
4cc
=3
[2dd
=4
2dd]}
=5
{4a
4g
=6
8.dd
16dd
8cc
8a
=7
[2g
=8
4g]}
{8dd
8dd
=9
4dd
8dd
8gg
=10
4dd
8cc
8dd
=11
4cc
8a
8g
=12
4d
4cc}
=13
{8.dd
16gg
4g
=14
4cc
8b
8a
=15
2g}
==
!!!AGN: Shange, Xintianyou. NannÅ siqing
!! +++Ggf. schon vorhanden?? Doublette? Saengerin: Huang Bai
!!    Wenig Verzierungen. Inhalt: Eine Frau sehnt sich nach ihrem Mann,
!!    der sich irgendwo als Gastarbeiter verdingt.
!!    Doppelt in C0024 und C0941.
!!!ONB: ESAC (Essen Associative Code) Database: CHINA
!!!AMT: simple duple
!!!AIN: vox
!!!EED: Helmut Schaffrath
!!!EEV: 1.0
*-
!!!ONB: Tied note syntax fixed by Craig Sapp, 2004/05/03/
